icons/svg/sport/raceway.svg

<?xml version="1.0" encoding="UTF-8" standalone="no"?>
<!-- Created with Inkscape (http://www.inkscape.org/) -->

<svg
   xmlns:dc="http://purl.org/dc/elements/1.1/"
   xmlns:cc="http://creativecommons.org/ns#"
   xmlns:rdf="http://www.w3.org/1999/02/22-rdf-syntax-ns#"
   xmlns:svg="http://www.w3.org/2000/svg"
   xmlns="http://www.w3.org/2000/svg"
   xmlns:sodipodi="http://sodipodi.sourceforge.net/DTD/sodipodi-0.dtd"
   xmlns:inkscape="http://www.inkscape.org/namespaces/inkscape"
   version="1.0"
   width="580"
   height="580"
   id="svg2"
   sodipodi:version="0.32"
   inkscape:version="0.91 r"
   sodipodi:docname="raceway.svg"
   inkscape:output_extension="org.inkscape.output.svg.inkscape">
  <metadata
     id="metadata2975">
    <rdf:RDF>
      <cc:Work
         rdf:about="">
        <dc:format>image/svg+xml</dc:format>
        <dc:type
           rdf:resource="http://purl.org/dc/dcmitype/StillImage" />
        <cc:license
           rdf:resource="http://web.resource.org/cc/PublicDomain" />
        <dc:language>en</dc:language>
        <dc:title />
      </cc:Work>
    </rdf:RDF>
  </metadata>
  <sodipodi:namedview
     inkscape:window-height="739"
     inkscape:window-width="1332"
     inkscape:pageshadow="2"
     inkscape:pageopacity="0.0"
     guidetolerance="10.0"
     gridtolerance="10.0"
     objecttolerance="10.0"
     borderopacity="1.0"
     bordercolor="#666666"
     pagecolor="#ffffff"
     id="base"
     inkscape:zoom="0.32586207"
     inkscape:cx="406.79219"
     inkscape:cy="284.42856"
     inkscape:window-x="34"
     inkscape:window-y="1024"
     inkscape:current-layer="svg2"
     showgrid="false"
     inkscape:window-maximized="1" />
  <defs
     id="defs4">
    <inkscape:perspective
       sodipodi:type="inkscape:persp3d"
       inkscape:vp_x="0 : 290 : 1"
       inkscape:vp_y="0 : 1000 : 0"
       inkscape:vp_z="580 : 290 : 1"
       inkscape:persp3d-origin="290 : 193.33333 : 1"
       id="perspective10" />
  </defs>
  <g
     id="g1327">
    <path
       d="M 66.275,1.768 C 24.94,1.768 1.704,23.139 1.704,66.804 l 0,450.123 c 0,40.844 20.895,62.229 62.192,62.229 l 452.024,0 c 41.307,0 62.229,-20.315 62.229,-62.229 l 0,-450.123 c 0,-42.601 -20.922,-65.036 -63.521,-65.036 -0.004,0 -448.495,-0.143 -448.353,0 z"
       style="fill:#111111;stroke:#eeeeee;stroke-width:3.40799999"
       id="path1329"
       inkscape:connector-curvature="0" />
  </g>
  <rect
     style="color:#000000;clip-rule:nonzero;display:inline;overflow:visible;visibility:visible;opacity:1;isolation:auto;mix-blend-mode:normal;color-interpolation:sRGB;color-interpolation-filters:linearRGB;solid-color:#000000;solid-opacity:1;fill:none;fill-opacity:0.69803922;fill-rule:nonzero;stroke:#ffffff;stroke-width:48;stroke-linecap:round;stroke-linejoin:round;stroke-miterlimit:4;stroke-dasharray:none;stroke-dashoffset:0;stroke-opacity:1;marker:none;color-rendering:auto;image-rendering:auto;shape-rendering:auto;text-rendering:auto;enable-background:accumulate"
     id="rect4459-5"
     width="422.2598"
     height="164.75946"
     x="78.870102"
     y="352.34869"
     ry="82.37973" />
  <path
     inkscape:connector-curvature="0"
     style="opacity:1;fill:#ffffff;fill-opacity:1;fill-rule:evenodd;stroke:#ffffff;stroke-width:2.50129294;stroke-linecap:round;stroke-linejoin:round;stroke-miterlimit:4;stroke-dasharray:none;stroke-opacity:1"
     d="m 401.68446,91.431512 c -0.65902,-0.380485 -1.39595,-0.740696 -2.13956,-1.086994 l -20.54071,35.577542 c 0.74362,0.3463 1.48055,0.7065 2.13956,1.08699 9.79962,5.65781 17.02161,19.49736 27.26053,28.78398 l 20.5407,-35.57754 C 418.70606,110.92887 411.48406,97.08933 401.68445,91.431525 Z"
     id="path15131" />
  <path
     inkscape:connector-curvature="0"
     sodipodi:nodetypes="cssssccsssc"
     d="M 321.13489,36.244154 253.46166,155.40312 c -4.30219,7.57536 12.61699,30.51332 23.41143,36.74549 14.51672,8.38123 43.80902,9.45673 57.00603,17.07602 13.19703,7.61932 22.17609,28.6398 38.0125,37.78295 15.83643,9.14317 39.64578,10.57227 39.64578,10.57227 l 71.62145,-124.05198 c 0,0 -23.80935,-1.42911 -39.64578,-10.57228 C 427.67666,113.81244 418.6976,92.79196 405.50058,85.172645 392.30357,77.553348 363.01126,76.477851 348.49454,68.096623 333.9778,59.715378 321.13489,36.244154 321.13489,36.244154 Z"
     style="opacity:1;fill:none;fill-opacity:1;fill-rule:evenodd;stroke:#ffffff;stroke-width:26.70745468;stroke-linecap:round;stroke-linejoin:round;stroke-miterlimit:4;stroke-dasharray:none;stroke-opacity:1"
     id="path15140" />
  <path
     inkscape:connector-curvature="0"
     style="opacity:1;fill:#ffffff;fill-opacity:1;fill-rule:evenodd;stroke:#ffffff;stroke-width:2.50129294;stroke-linecap:round;stroke-linejoin:round;stroke-miterlimit:4;stroke-dasharray:none;stroke-opacity:1"
     d="m 448.43527,172.72826 c -2.9455,-0.21899 -21.39345,-1.82649 -34.5019,-9.39465 -1.68005,-0.96998 -3.28012,-2.08749 -4.80478,-3.3176 l -20.5407,35.57755 c 1.52465,1.23011 3.12473,2.34759 4.80479,3.31757 13.10844,7.56817 31.55639,9.17567 34.50189,9.39467 l 20.5407,-35.57754 z"
     id="path15142" />
  <path
     inkscape:connector-curvature="0"
     style="opacity:1;fill:#ffffff;fill-opacity:1;fill-rule:evenodd;stroke:#ffffff;stroke-width:2.50129294;stroke-linecap:round;stroke-linejoin:round;stroke-miterlimit:4;stroke-dasharray:none;stroke-opacity:1"
     d="m 357.8643,167.33025 c -0.65902,-0.38049 -1.39594,-0.74071 -2.13956,-1.08699 l -20.5407,35.57752 c 0.74362,0.34631 1.48055,0.70651 2.13956,1.08699 9.79962,5.65781 17.02161,19.49736 27.26054,28.78397 l 20.54069,-35.57752 C 374.88591,186.8276 367.66392,172.98805 357.8643,167.33024 Z"
     id="path15144" />
  <path
     inkscape:connector-curvature="0"
     style="opacity:1;fill:#ffffff;fill-opacity:1;stroke:#ffffff;stroke-width:2.50129294;stroke-linecap:round;stroke-linejoin:round;stroke-miterlimit:4;stroke-dasharray:none;stroke-dashoffset:0;stroke-opacity:1"
     d="m 282.05114,123.36186 -17.01794,31.18768 c -3.74622,6.87408 11.36316,27.41291 21.06332,33.0133 1.22368,0.70649 2.59096,1.32753 4.0254,1.92875 l 20.5407,-35.57753 c -1.43444,-0.60122 -2.80172,-1.22227 -4.02539,-1.92876 -13.04512,-7.5316 -24.58609,-28.62344 -24.58609,-28.62344 z"
     id="rect15152" />
  <path
     inkscape:connector-curvature="0"
     style="opacity:1;fill:#ffffff;fill-opacity:1;stroke:#ffffff;stroke-width:2.50129294;stroke-linecap:round;stroke-linejoin:round;stroke-miterlimit:4;stroke-dasharray:none;stroke-dashoffset:0;stroke-opacity:1"
     d="m 375.40971,127.35506 c -11.00346,-4.29126 -28.40105,-6.0445 -40.59048,-10.48864 l -20.5407,35.57753 c 12.18943,4.44415 29.58702,6.19738 40.59048,10.48866 l 20.5407,-35.57755 z"
     id="rect15154" />
  <path
     inkscape:connector-curvature="0"
     style="opacity:1;fill:#ffffff;fill-opacity:1;stroke:#ffffff;stroke-width:2.50129294;stroke-linecap:round;stroke-linejoin:round;stroke-miterlimit:4;stroke-dasharray:none;stroke-dashoffset:0;stroke-opacity:1"
     d="m 325.8713,47.463123 -17.01794,31.187665 c -3.74622,6.874078 11.36317,27.412912 21.06333,33.013302 1.22367,0.70649 2.59095,1.32754 4.02538,1.92877 l 20.54071,-35.577543 c -1.43444,-0.601223 -2.80172,-1.222264 -4.0254,-1.928754 -13.04511,-7.5316 -24.58608,-28.62344 -24.58608,-28.62344 z"
     id="rect15168" />
  <path
     inkscape:connector-curvature="0"
     style="opacity:1;fill:#ffffff;fill-opacity:1;fill-rule:evenodd;stroke:#ffffff;stroke-width:24;stroke-linecap:round;stroke-linejoin:round;stroke-miterlimit:4;stroke-dasharray:none;stroke-opacity:1"
     d="m 169.73068,285.0412 150.6031,-241.945791 6.3409,3.66092 -150.6031,241.945791 z"
     id="path15180"
     sodipodi:nodetypes="ccccc" />
</svg>

<svg width="580" height="580" viewBox="0 0 580 580" fill="none" xmlns="http://www.w3.org/2000/svg">
<g clip-path="url(#clip0)">
<path d="M66.275 1.76815C24.94 1.76815 1.70398 23.1391 1.70398 66.8041V516.927C1.70398 557.771 22.599 579.156 63.896 579.156H515.92C557.227 579.156 578.149 558.841 578.149 516.927V66.8041C578.149 24.2031 557.227 1.76815 514.628 1.76815C514.624 1.76815 66.133 1.62515 66.275 1.76815V1.76815Z" fill="#111111" stroke="#EEEEEE" stroke-width="3.408"/>
<path d="M418.75 352.349H161.25C115.753 352.349 78.8701 389.231 78.8701 434.728C78.8701 480.225 115.753 517.108 161.25 517.108H418.75C464.247 517.108 501.13 480.225 501.13 434.728C501.13 389.231 464.247 352.349 418.75 352.349Z" stroke="white" stroke-width="48" stroke-linecap="round" stroke-linejoin="round"/>
<path fill-rule="evenodd" clip-rule="evenodd" d="M401.684 91.4317C401.025 91.0512 400.288 90.691 399.545 90.3447L379.004 125.922C379.748 126.269 380.485 126.629 381.144 127.009C390.943 132.667 398.165 146.507 408.404 155.793L428.945 120.216C418.706 110.929 411.484 97.0895 401.684 91.4317V91.4317Z" fill="white" stroke="white" stroke-width="2.50129" stroke-linecap="round" stroke-linejoin="round"/>
<path fill-rule="evenodd" clip-rule="evenodd" d="M321.135 36.2441L253.462 155.403C249.16 162.978 266.079 185.916 276.873 192.149C291.39 200.53 320.682 201.605 333.879 209.225C347.076 216.844 356.055 237.864 371.892 247.008C387.728 256.151 411.537 257.58 411.537 257.58L483.159 133.528C483.159 133.528 459.35 132.099 443.513 122.956C427.677 113.812 418.698 92.7919 405.501 85.1726C392.304 77.5533 363.011 76.4778 348.495 68.0966C333.978 59.7154 321.135 36.2441 321.135 36.2441Z" stroke="white" stroke-width="26.7075" stroke-linecap="round" stroke-linejoin="round"/>
<path fill-rule="evenodd" clip-rule="evenodd" d="M448.435 172.728C445.49 172.509 427.042 170.902 413.933 163.334C412.253 162.364 410.653 161.246 409.129 160.016L388.588 195.594C390.113 196.824 391.713 197.941 393.393 198.911C406.501 206.479 424.949 208.087 427.895 208.306L448.435 172.728V172.728Z" fill="white" stroke="white" stroke-width="2.50129" stroke-linecap="round" stroke-linejoin="round"/>
<path fill-rule="evenodd" clip-rule="evenodd" d="M357.864 167.33C357.205 166.95 356.468 166.589 355.725 166.243L335.184 201.821C335.928 202.167 336.665 202.527 337.324 202.908C347.123 208.565 354.345 222.405 364.584 231.692L385.125 196.114C374.886 186.828 367.664 172.988 357.864 167.33V167.33Z" fill="white" stroke="white" stroke-width="2.50129" stroke-linecap="round" stroke-linejoin="round"/>
<path d="M282.051 123.362L265.033 154.549C261.287 161.424 276.396 181.962 286.097 187.563C287.32 188.269 288.688 188.89 290.122 189.492L310.663 153.914C309.228 153.313 307.861 152.692 306.637 151.985C293.592 144.454 282.051 123.362 282.051 123.362V123.362Z" fill="white" stroke="white" stroke-width="2.50129" stroke-linecap="round" stroke-linejoin="round"/>
<path d="M375.41 127.355C364.406 123.064 347.009 121.31 334.819 116.866L314.279 152.444C326.468 156.888 343.866 158.641 354.869 162.932L375.41 127.355V127.355Z" fill="white" stroke="white" stroke-width="2.50129" stroke-linecap="round" stroke-linejoin="round"/>
<path d="M325.871 47.4629L308.853 78.6506C305.107 85.5246 320.217 106.063 329.917 111.664C331.14 112.37 332.508 112.991 333.942 113.593L354.483 78.0151C353.048 77.4139 351.681 76.7928 350.457 76.0863C337.412 68.5547 325.871 47.4629 325.871 47.4629V47.4629Z" fill="white" stroke="white" stroke-width="2.50129" stroke-linecap="round" stroke-linejoin="round"/>
<path fill-rule="evenodd" clip-rule="evenodd" d="M169.731 285.041L320.334 43.0952L326.675 46.7561L176.072 288.702L169.731 285.041Z" fill="white" stroke="white" stroke-width="24" stroke-linecap="round" stroke-linejoin="round"/>
</g>
<defs>
<clipPath id="clip0">
<path d="M0 0H580V580H0V0Z" fill="white"/>
</clipPath>
</defs>
</svg>
